X:1
T:Andrew Barton
M:6/8
L:1/8
K:C
 G|A-A AA-B A| G/2 G3/2 E C2 G| A/2- A3/2 A ddc| A2 A A2 G| A2 A A2 A|\
 GGEC-C-D| EGG AGE| D2 C D2||
